public/images/right-left.svg

<svg viewBox="0 0 118 59" xmlns="http://www.w3.org/2000/svg"><g fill="none" fill-rule="evenodd"><path fill="#E5E5E5" d="M16 50.6l.05-38.55h85.45V50.6H16"/><path fill="#F3F3F3" d="M16.05 12.05v-4h85.45v4H16.05"/><path d="M16.05 12.05L16 50.6v4H4V4h12.05v8.05m85.45-4V4h12.05l-.05 50.6h-12V8.05" fill="#B6B6B6"/><path d="M101.5 8.05H16.05V4H4v50.6h12v-4h85.5v4h12l.05-50.6H101.5v4.05M16.05 0c1.1 0 2.05.4 2.85 1.2.767.767 1.15 1.7 1.15 2.8v.05H97.5V4c0-1.1.4-2.033 1.2-2.8.767-.8 1.7-1.2 2.8-1.2h12.05c1.1 0 2.05.4 2.85 1.2.767.767 1.15 1.7 1.15 2.8l-.05 50.6c0 1.1-.383 2.05-1.15 2.85-.8.767-1.75 1.15-2.85 1.15h-12c-1.1 0-2.033-.383-2.8-1.15-.8-.8-1.2-1.75-1.2-2.85H20c0 1.1-.383 2.05-1.15 2.85-.8.767-1.75 1.15-2.85 1.15H4c-1.1 0-2.033-.383-2.8-1.15C.4 56.65 0 55.7 0 54.6V4c0-1.1.4-2.033 1.2-2.8C1.967.4 2.9 0 4 0h12.05" fill="#777"/></g></svg>

<?xml version="1.0" encoding="UTF-8" standalone="no"?>
<svg viewBox="0 0 118 59" version="1.1" xmlns="http://www.w3.org/2000/svg" xmlns:xlink="http://www.w3.org/1999/xlink">
    <g id="Page-1" stroke="none" stroke-width="1" fill="none" fill-rule="evenodd">
        <polyline id="Shape" fill="#E5E5E5" points="16 50.6 16.05 12.05 101.5 12.05 101.5 50.6 16 50.6"></polyline>
        <polyline id="Shape" fill="#F3F3F3" points="16.05 12.05 16.05 8.05 101.5 8.05 101.5 12.05 16.05 12.05"></polyline>
        <path d="M16.05,12.05 L16,50.6 L16,54.6 L4,54.6 L4,4 L16.05,4 L16.05,8.05 L16.05,12.05 M101.5,8.05 L101.5,4 L113.55,4 L113.5,54.6 L101.5,54.6 L101.5,50.6 L101.5,12.05 L101.5,8.05" id="Shape" fill="#B6B6B6"></path>
        <path d="M101.5,8.05 L16.05,8.05 L16.05,4 L4,4 L4,54.6 L16,54.6 L16,50.6 L101.5,50.6 L101.5,54.6 L113.5,54.6 L113.55,4 L101.5,4 L101.5,8.05 M16.05,0 C17.15,0 18.1,0.4 18.9,1.2 C19.6666667,1.96666667 20.05,2.9 20.05,4 L20.05,4.05 L97.5,4.05 L97.5,4 C97.5,2.9 97.9,1.96666667 98.7,1.2 C99.4666667,0.4 100.4,0 101.5,0 L113.55,0 C114.65,0 115.6,0.4 116.4,1.2 C117.166667,1.96666667 117.55,2.9 117.55,4 L117.5,54.6 C117.5,55.7 117.116667,56.65 116.35,57.45 C115.55,58.2166667 114.6,58.6 113.5,58.6 L101.5,58.6 C100.4,58.6 99.4666667,58.2166667 98.7,57.45 C97.9,56.65 97.5,55.7 97.5,54.6 L20,54.6 C20,55.7 19.6166667,56.65 18.85,57.45 C18.05,58.2166667 17.1,58.6 16,58.6 L4,58.6 C2.9,58.6 1.96666667,58.2166667 1.2,57.45 C0.4,56.65 0,55.7 0,54.6 L0,4 C0,2.9 0.4,1.96666667 1.2,1.2 C1.96666667,0.4 2.9,0 4,0 L16.05,0" id="Shape" fill="#777777"></path>
    </g>
</svg>
